**kern	**kern
*staff1	*staff1
*solos[solo1,solo2]
=1-	=1-	!!Intro
*clefG2	*clefG2
*k[]	*k[]
*E-:	*E-:
*M4/4	*M4/4
{8g/L	1E-:maj
8B-/J	.
12c/L	.
12B-/	.
[12c/J	.
4.c/]	.
8B-/	.
=2	=2
8d-/L	2F:min
8c/	.
8d-/	.
[8c/J	.
8c/]	2B-:dom
4B/	.
8g/	.
=3	=3
4b-\	2G:min
16g/LL	.
16f/	.
16d/	.
16B-/JJ	.
8d-/L	2C:dom
[8a/J	.
4a/]	.
=4	=4
8r	2F:min
16b\LL	.
16cc\JJ	.
16ee-\LL	.
16cc\	.
16b-\	.
16a-\JJ	.
16cc/LL	2B-:dom
16a-/	.
16g/	.
16f/JJ	.
16bn\LL	.
16b-\JJ}	.
8r	.
=5	=5	!!Head
*>head1
{8g/L	1E-:dom
8g/J	.
12e-/L	.
12B-/	.
12e-/J	.
8g/L	.
8g/J	.
12e-/L	.
12B-/	.
12e-/J	.
=6||	=6||
8g/L	1E-:dom
8g/J}	.
4r	.
2r	.
=7	=7
{8g/L	1E-:dom
8g/J	.
12e-/L	.
12B-/	.
12e-/J	.
8g\L	.
8b-\	.
8cc\	.
[8dd-\J	.
=8	=8
4dd-\]}	1E-:dom
4r	.
2r	.
=9	=9
{8g-/L	1A-:dom
8g-/J	.
12e-/L	.
12B-/	.
12e-/J	.
8g-/L	.
8g-/J	.
12e-/L	.
12B-/	.
12e-/J	.
=10	=10
8g-/L	1A-:dom
8g-/J}	.
4r	.
2r	.
=11	=11
{8g/L	1E-:dom
8g/J	.
12e-/L	.
12B-/	.
12e-/J	.
8g\L	.
8b-\	.
8cc\	.
[8dd\J	.
=12	=12
4dd\]m}	2G:min
4r	.
2r	2C:dom
=13	=13
{8g/L	1F:min
8g/J	.
12e-/L	.
12B-/	.
12e-/J	.
8g/L	.
8g/J	.
12e-/L	.
12B-/	.
12e-/J	.
=14	=14
8g/L	1B-:dom
8g/J}	.
4r	.
2r	.
=15	=15
{8g/L	1E-:dom
8g/J	.
12e-/L	.
12B-/	.
12e-/J	.
8g/L	.
8B-/	.
8c/	.
[8e-/J	.
=16	=16
4e-/]}	2F:min
4r	.
2r	2B-:dom
=17	=17
1r	.
=18||	=18||
1r	.
=19	=19
1r	.
=20	=20
1r	.
=21	=21
1r	.
=22	=22
1r	.
=23	=23
1r	.
=24	=24
1r	.
=25	=25
1r	.
=26	=26
1r	.
=27	=27
1r	.
=28	=28
1r	.
=29	=29
1r	.
=30	=30
1r	.
=31	=31
1r	.
=32	=32
1r	.
=33	=33
1r	.
=34	=34
1r	.
=35	=35
1r	.
=36	=36
1r	.
=37	=37
1r	.
=38	=38
1r	.
=39	=39
1r	.
=40	=40
1r	.
=41	=41	!!Chorus 1
8r	1E-:dom
*>solo1
{16B-/LL	.
16c/JJ	.
16e-/LL	.
16g/	.
16a-/	.
16e-/JJ	.
16g/LK	.
[8.a-/J	.
4a-/]	.
=42||	=42||
8r	1E-:dom
8e-/	.
16g-/LL	.
16a-/	.
16an/	.
16b-/JJ	.
48a/LLL	.
48b-/	.
48a/JJJ	.
16a-/LL	.
16gn/	.
[16f/JJ	.
16f/LL]	.
16e-/	.
16d/	.
16f/JJ	.
=43	=43
16a-/LL	1E-:dom
16b/	.
16b-/	.
16a-/JJ	.
16g/LL	.
16f/	.
16e-/	.
16B-/JJ	.
16d/LL	.
16e-/	.
16f/	.
16d/JJ	.
16e-/LL	.
16B-/	.
16c/	.
[16d-/JJ	.
=44	=44
4d-/]}	1E-:dom
4r	.
2r	.
=45	=45
8r	1A-:dom
{8e-\L	.
8ee-\	.
16cc\L	.
16b-\JJ	.
8g-/L	.
8e-/	.
8f/	.
[8c/J	.
=46	=46
4c/]}	1A-:dom
4r	.
8r	.
{8F/	.
16G-/LL	.
16A-/	.
16B-/	.
16c/JJ	.
=47	=47
8.f/L	1E-:dom
16d/Jk	.
16e-/LK	.
8.B-/J}	.
2r	.
=48	=48
8r	2E-:dom
{16dd\LL	.
16dd-\JJ	.
16cc\LL	.
16b\	.
16b-\	.
16a-\JJ	.
16g/LL	2C:dom
16f/	.
16e/	.
16G/JJ	.
16B-/LL	.
16d-/	.
16c/	.
16Bn/JJ	.
=49	=49
16B-/LL	1F:min
16A/	.
16A-/	.
16c/JJ	.
16g/LL	.
16f/	.
16c/	.
16A-/JJ	.
16e-/LL	.
16c#/	.
16d/	.
16b/JJ	.
16a-/LL	.
16an/	.
16b-/	.
16An/JJ	.
=50	=50
16B-/LL	1B-:dom
16a-/	.
16f/	.
16f#/JJ	.
16g/LL	.
16fn/	.
16e-/	.
16c/JJ	.
16f/LL	.
16g/	.
16a-/	.
16b-/JJ	.
24bn\LL	.
24cc#\	.
24b\JJ	.
16b-/LL	.
16a-/JJ	.
=51	=51
16g/LL	1E-:dom
16f/	.
16e-/	.
16B-/JJ	.
16d-/LL	.
16Bn/JJ	.
24c/LL	.
24e-/	.
24g/JJ	.
16b-/LL	.
16a-/	.
16e-/	.
16c/J	.
8B/	.
16a-/L	.
16g-/JJ	.
=52	=52
4g/}	2F:min
4r	.
2r	2B-:dom
=53	=53	!!Chorus 2
8r	1E-:dom
*>solo2
{8e-/	.
12g\L	.
12b-\	.
12cc\J	.
4ee-\	.
8cc/L	.
8e-/J	.
=54||	=54||
4ee-\	1A-:dom
8cc/L	.
8g-/J}	.
4r	.
8r	.
{8e-/	.
=55	=55
8g\L	1E-:dom
[8b-\	.
8b-\]	.
16b-\L	.
16cc\JJ	.
8g/L	.
8e-/	.
8f/	.
8e-/J	.
=56	=56
8g\L	1E-:dom
8b-\	.
8cc\	.
8dd-\J	.
4r	.
8r	.
16e-/LL	.
16f/JJ	.
=57	=57
8g-/L	1A-:dom
[8A-/J	.
4A-/]}	.
2r	.
=58	=58
1r	1A-:dom
=59	=59
4r	1E-:dom
{16cc/LL	.
16dd-/	.
16a/	.
16g-/JJ	.
16e-/LL	.
16g-/	.
16a/	.
16dd-/JJ	.
16cc\LL	.
16b\	.
16b-\	.
16a\JJ	.
=60	=60
16a-/LL	1E-:dom
16c/	.
16b-/	.
16a-/JJ	.
16g/LL	.
16f/	.
16e-/	.
16B-/JJ	.
24d/LL	.
24e-/	.
24en/JJ	.
16f/LL	.
16d/JJ	.
16e/LL	.
16c#/	.
16A/	.
16F#/JJ	.
=61	=61
24F/LL	1F:min
24A-/	.
24c/JJ	.
16e-/LL	.
16c/JJ	.
16d-/LL	.
16dn/JJ}	.
8r	.
4r	.
{16b-\LL	.
16bn\	.
16cc\	.
16b\JJ	.
=62	=62
16b-/LL	1B-:dom
16a/	.
16a-/	.
16b-/JJ}	.
4r	.
8r	.
{16a-/LL	.
16b-/JJ	.
16g-/LL	.
16d/JJ	.
24B-/LL	.
24A/	.
24A-/JJ	.
=63	=63
16r	1E-:dom
16B-/LL	.
16G/	.
16B-/JJ	.
16g/LL	.
16f/	.
16e-/	.
16B-/JJ	.
16d-/LL	.
16Bn/JJ	.
24c/LL	.
24e-/	.
24g/JJ	.
16b-/LL	.
16a-/	.
16B/	.
16A/JJ	.
=64	=64
16B-/LL	2F:min
16a-/	.
16f/	.
16f#/JJ	.
16g/LK	.
8.e-/J	.
4r	2B-:dom
24d-/LL	.
24e-/	.
24d-/JJ	.
16B-/LL	.
16A-/JJ	.
=65	=65
12G/L	1E-:dom
12E-/	.
12E-/J	.
4E-/}	.
2r	.
==	==
*-	*-
